; generated by PrusaSlicer 2.9.2 on 2025-04-14 at 22:10:23 UTC

; 

; external perimeters extrusion width = 0.45mm
; perimeters extrusion width = 0.45mm
; infill extrusion width = 0.45mm
; solid infill extrusion width = 0.45mm
; top infill extrusion width = 0.40mm
; first layer extrusion width = 0.70mm

M104 S200 ; set temperature
;TYPE:Custom
G28 ; home all axes
G1 Z5 F5000 ; lift nozzle
M109 S200 ; set temperature and wait for it to be reached
G21 ; set units to millimeters
G90 ; use absolute coordinates
M82 ; use absolute distances for extrusion
G92 E0
; Filament gcode
M107
;LAYER_CHANGE
;Z:0.35
;HEIGHT:0.35
G1 E-2 F2400
G92 E0
G1 Z.35 F7800
G1 X70.891 Y88.679
G1 E2 F2400
;TYPE:Skirt/Brim
;WIDTH:0.7
G1 F1800
G1 X71.796 Y88.073 E2.09904
G1 X72.793 Y87.587 E2.19989
G1 X73.927 Y87.223 E2.30819
G1 X75.018 Y87.037 E2.40883
G1 X98.775 Y85.573 E4.57314
G1 X100.324 Y85.536 E4.71403
G1 X103.077 Y85.75 E4.96511
G1 X105.898 Y86.353 E5.22742
G1 X108.332 Y87.209 E5.46203
G1 X110.829 Y88.462 E5.71606
G1 X113.152 Y90.037 E5.97126
G1 X115.225 Y91.884 E6.22372
G1 X117.121 Y94.09 E6.48822
G1 X118.619 Y96.4 E6.73857
G1 X119.227 Y97.901 E6.88583
G1 X119.417 Y98.735 E6.96361
G1 X119.515 Y99.641 E7.04647
G1 X119.423 Y101.229 E7.19111
G1 X118.952 Y102.891 E7.34819
G1 X117.998 Y104.643 E7.52959
G1 X116.593 Y106.588 E7.74777
G1 X114.986 Y108.355 E7.96495
G1 X113.199 Y109.926 E8.18131
G1 X111.678 Y111.014 E8.35136
G1 X110.223 Y111.88 E8.50532
G1 X108.627 Y112.664 E8.66701
G1 X107.059 Y113.28 E8.8202
G1 X105.335 Y113.799 E8.98391
G1 X103.644 Y114.16 E9.14114
G1 X101.803 Y114.393 E9.30988
G1 X99.98 Y114.466 E9.47578
G1 X74.655 Y112.918 E11.78287
G1 X73.189 Y112.562 E11.92005
G1 X71.885 Y111.978 E12.04997
G1 X70.557 Y111.048 E12.19739
G1 X69.426 Y109.84 E12.34786
G1 X68.791 Y108.862 E12.45389
G1 X68.299 Y107.788 E12.56131
G1 X67.998 Y106.792 E12.65592
G1 X67.823 Y105.733 E12.75352
G1 X67.811 Y94.398 E13.78421
G1 X68.133 Y92.706 E13.94082
G1 X68.743 Y91.226 E14.08638
G1 X69.697 Y89.822 E14.24073
G1 X70.848 Y88.72 E14.38563
G1 E12.38563 F2400
G92 E0
G92 E0
G1 X104.553 Y100.295 F7800
G1 E2 F2400
;TYPE:External perimeter
;WIDTH:0.7
G1 F1800
G1 X105.016 Y98.948 E2.12952
G1 X105.276 Y98.484 E2.17788
G1 X105.624 Y98.197 E2.2189
G1 X105.782 Y98.143 E2.23408
G1 X106.027 Y98.154 E2.25638
G1 X106.275 Y98.277 E2.28155
G1 X106.536 Y98.549 E2.31583
G1 X106.578 Y98.67 E2.32748
;WIDTH:0.669556
G1 X106.591 Y99.371 E2.38813
;WIDTH:0.7
G1 X106.554 Y99.527 E2.40271
G1 X106.319 Y100.062 E2.45584
G1 X106.108 Y100.702 E2.51712
G1 X105.155 Y103.364 E2.77422
G1 X104.572 Y104.793 E2.91456
G1 X104.212 Y105.374 E2.97671
G1 X103.842 Y105.679 E3.02031
G1 X103.546 Y105.819 E3.05008
G1 X103.055 Y105.954 E3.09638
G1 X102.557 Y105.931 E3.14171
G1 X102.254 Y105.731 E3.17472
G1 X102.075 Y105.53 E3.19919
G1 X101.943 Y105.093 E3.2407
G1 X101.979 Y104.773 E3.26998
G1 X102.128 Y104.544 E3.29482
G1 X102.375 Y104.392 E3.32119
G1 X102.882 Y104.222 E3.36981
G1 X103.061 Y104.118 E3.38863
G1 X103.301 Y103.73 E3.43011
G1 X103.64 Y102.924 E3.50962
G1 X103.692 Y102.723 E3.5285
G1 X103.592 Y102.389 E3.5602
G1 X103.389 Y101.925 E3.60625
G1 X102.415 Y99.306 E3.86033
G1 X102.418 Y99.153 E3.87424
;WIDTH:0.66173
G1 X102.422 Y98.999 E3.88739
;WIDTH:0.62346
G1 X102.426 Y98.846 E3.8996
G1 X102.434 Y98.735 E3.90848
;WIDTH:0.66173
G1 X102.441 Y98.623 E3.91806
;WIDTH:0.7
G1 X102.449 Y98.512 E3.92818
G1 X102.715 Y98.225 E3.96376
G1 X103.092 Y98.134 E3.99902
G1 X103.388 Y98.181 E4.02627
G1 X103.784 Y98.396 E4.06724
G1 X104.042 Y98.831 E4.11323
G1 X104.222 Y99.46 E4.17272
G1 X104.531 Y100.25 E4.24985
G1 X104.697 Y99.886 F7800
G1 E2.24985 F2400
G92 E0
G1 X100.209 Y99.073 F7800
G1 E2 F2400
G1 F1800
G1 X100.436 Y98.636 E2.04478
G1 X100.79 Y98.279 E2.0905
G1 X101.142 Y98.136 E2.12505
G1 X101.46 Y98.173 E2.15416
G1 X101.766 Y98.388 E2.18817
G1 X101.907 Y98.637 E2.21419
;WIDTH:0.662519
G1 X101.915 Y99.184 E2.26095
;WIDTH:0.7
G1 X101.886 Y99.325 E2.27404
G1 X101.224 Y100.446 E2.39242
G1 X101.144 Y100.702 E2.41681
G1 X101.228 Y100.964 E2.44183
G1 X101.849 Y101.998 E2.5515
G1 X102.011 Y102.382 E2.5894
G1 X102.042 Y102.671 E2.61583
G1 X101.989 Y102.953 E2.64192
G1 X101.836 Y103.197 E2.66811
G1 X101.599 Y103.369 E2.69474
G1 X101.117 Y103.444 E2.7391
G1 X100.812 Y103.338 E2.76846
G1 X100.624 Y103.18 E2.79079
G1 X100.354 Y102.768 E2.83558
G1 X100.108 Y102.323 E2.88181
G1 X99.878 Y102.776 E2.92801
G1 X99.518 Y103.234 E2.98098
G1 X99.23 Y103.402 E3.0113
G1 X99.07 Y103.429 E3.02605
G1 X98.758 Y103.373 E3.05487
G1 X98.459 Y103.174 E3.08753
G1 X98.372 Y103.072 E3.09972
G1 X98.353 Y102.974 E3.1088
;WIDTH:0.660176
G1 X98.333 Y102.875 E3.1174
;WIDTH:0.620353
G1 X98.358 Y102.727 E3.12931
;WIDTH:0.575293
G1 X98.383 Y102.578 E3.14031
;WIDTH:0.530234
G1 X98.409 Y102.43 E3.15026
;WIDTH:0.523231
G1 X98.408 Y102.369 E3.15424
;WIDTH:0.561288
G1 X98.408 Y102.309 E3.15848
;WIDTH:0.599344
G1 X98.408 Y102.248 E3.16313
;WIDTH:0.637401
G1 X98.407 Y102.187 E3.16812
;WIDTH:0.6687
G1 X98.533 Y101.935 E3.19246
;WIDTH:0.7
G1 X98.914 Y101.239 E3.26461
G1 X99.224 Y100.801 E3.3134
G1 X98.535 Y99.574 E3.44136
G1 X98.343 Y99.102 E3.48769
G1 X98.333 Y98.73 E3.52153
G1 X98.492 Y98.419 E3.55329
G1 X98.719 Y98.246 E3.57924
G1 X99.138 Y98.13 E3.61877
G1 X99.491 Y98.222 E3.65194
G1 X99.818 Y98.505 E3.69126
G1 X100.181 Y99.102 E3.75479
G1 X100.375 Y98.752 F7800
G1 E1.75479 F2400
G92 E0
G1 X91.124 Y103.127 F7800
G1 E2 F2400
G1 F1800
G1 X91.094 Y103.11 E2.00314
G1 X90.89 Y102.866 E2.03206
G1 X90.767 Y102.317 E2.08322
;WIDTH:0.7364
G1 X90.754 Y102.034 E2.11048
;WIDTH:0.772801
G1 X90.741 Y101.751 E2.13924
G1 X90.757 Y101.233 E2.19185
;WIDTH:0.77682
G1 X90.742 Y100.856 E2.23038
;WIDTH:0.806883
G1 X90.728 Y100.479 E2.27055
G1 X90.746 Y100.31 E2.28865
;WIDTH:0.771255
G1 X90.764 Y100.141 E2.30587
;WIDTH:0.735627
G1 X90.782 Y99.971 E2.3223
;WIDTH:0.7
G1 X90.784 Y98.055 E2.49652
G1 X90.744 Y97.464 E2.55038
G1 X90.81 Y97.159 E2.57876
G1 X90.893 Y97.019 E2.59356
G1 X91.132 Y96.82 E2.62184
G1 X91.439 Y96.713 E2.6514
G1 X91.742 Y96.684 E2.67908
G1 X93.33 Y96.72 E2.82351
G1 X93.835 Y96.787 E2.86983
G1 X94.336 Y96.924 E2.91706
G1 X94.739 Y97.129 E2.95817
G1 X95.107 Y97.435 E3.00169
G1 X95.437 Y97.86 E3.05062
G1 X95.637 Y98.212 E3.08743
G1 X95.843 Y98.808 E3.14477
G1 X95.948 Y99.442 E3.2032
G1 X95.954 Y100.363 E3.28695
G1 X95.865 Y100.975 E3.34318
;WIDTH:0.704791
G1 X95.695 Y101.542 E3.39742
;WIDTH:0.705719
G1 X95.671 Y101.601 E3.40326
G1 X95.866 Y101.365 E3.43135
;WIDTH:0.701007
G1 X96.276 Y101.112 E3.47523
;WIDTH:0.7
G1 X96.79 Y101.02 E3.52271
G1 X97.314 Y101.133 E3.57145
G1 X97.71 Y101.404 E3.61508
G1 X98.004 Y101.836 E3.6626
G1 X98.018 Y101.976 E3.67539
;WIDTH:0.657875
G1 X98.032 Y102.116 E3.68732
;WIDTH:0.615751
G1 X98.047 Y102.256 E3.6984
;WIDTH:0.573627
G1 X98.006 Y102.442 E3.71222
;WIDTH:0.524048
G1 X97.965 Y102.628 E3.72466
;WIDTH:0.518818
G1 X97.968 Y102.689 E3.7286
;WIDTH:0.563166
G1 X97.972 Y102.75 E3.73294
;WIDTH:0.607514
G1 X97.975 Y102.811 E3.73767
;WIDTH:0.651863
G1 X97.979 Y102.872 E3.7428
;WIDTH:0.7
G1 X97.747 Y103.295 E3.78667
G1 X97.298 Y103.605 E3.83628
G1 X96.772 Y103.714 E3.88513
G1 X96.266 Y103.612 E3.93207
G1 X95.819 Y103.325 E3.98037
G1 X95.53 Y102.897 E4.02733
G1 X95.426 Y102.296 E4.08279
G1 X95.527 Y101.853 E4.12411
G1 X95.297 Y102.228 E4.16411
G1 X94.945 Y102.604 E4.21094
G1 X94.433 Y102.942 E4.26673
G1 X93.917 Y103.121 E4.31639
G1 X93.403 Y103.204 E4.36373
G1 X92.862 Y103.234 E4.413
G1 X92.144 Y103.227 E4.47829
G1 X91.616 Y103.266 E4.52643
G1 X91.276 Y103.215 E4.55769
G1 X91.176 Y103.157 E4.5682
G1 X90.913 Y102.857 F7800
G1 E2.5682 F2400
G92 E0
G1 X95.671 Y101.601 F7800
G1 E2 F2400
;WIDTH:0.705719
G1 F1800
G1 X95.54 Y101.821 E2.0235
G1 E.0235 F2400
G92 E0
G1 X86.616 Y98.56 F7800
G1 E2 F2400
;WIDTH:0.7
G1 F1800
G1 X86.592 Y98.568 E2.0023
G1 X86.312 Y98.462 E2.02952
G1 X86.049 Y98.21 E2.06264
G1 X85.94 Y98.033 E2.08154
G1 X85.919 Y97.906 E2.09324
;WIDTH:0.6633
G1 X85.898 Y97.779 E2.10426
G1 X85.928 Y97.533 E2.12547
;WIDTH:0.7
G1 X85.957 Y97.287 E2.14799
G1 X86.333 Y96.908 E2.19653
G1 X86.961 Y96.623 E2.25924
G1 X87.617 Y96.525 E2.31955
G1 X88.259 Y96.555 E2.37799
G1 X88.811 Y96.696 E2.42979
G1 X89.269 Y96.966 E2.47813
G1 X89.616 Y97.388 E2.52781
G1 X89.735 Y97.643 E2.5534
G1 X89.802 Y97.926 E2.57984
G1 X89.784 Y98.655 E2.64615
G1 X89.66 Y99.097 E2.68789
G1 X89.505 Y99.325 E2.71296
G1 X89.307 Y99.494 E2.73663
G1 X89.659 Y99.818 E2.78013
;WIDTH:0.739737
G1 X89.818 Y100.157 E2.81634
;WIDTH:0.779474
G1 X89.976 Y100.496 E2.85467
G1 X90.083 Y101.174 E2.92502
;WIDTH:0.75733
G1 X90.032 Y101.709 E2.97837
G1 X89.865 Y102.066 E3.0175
;WIDTH:0.728665
G1 X89.697 Y102.422 E3.05494
;WIDTH:0.7
G1 X89.38 Y102.81 E3.1005
G1 X88.993 Y103.101 E3.14453
G1 X88.669 Y103.255 E3.17715
G1 X88.214 Y103.37 E3.21982
G1 X87.472 Y103.399 E3.28734
G1 X86.772 Y103.267 E3.35211
G1 X86.268 Y103.002 E3.40389
G1 X86.024 Y102.743 E3.43625
G1 X85.878 Y102.386 E3.47132
G1 X85.858 Y102.086 E3.49866
G1 X85.954 Y101.744 E3.53096
G1 X86.122 Y101.539 E3.55506
G1 X86.414 Y101.383 E3.58516
G1 X86.781 Y101.342 E3.61874
G1 X87.248 Y101.469 E3.66275
G1 X87.751 Y101.805 E3.71775
G1 X87.935 Y101.788 E3.73455
G1 X88.135 Y101.663 E3.756
G1 X88.267 Y101.344 E3.78739
G1 X88.238 Y101.109 E3.80892
G1 X88.085 Y100.875 E3.83434
G1 X87.782 Y100.629 E3.86983
G1 X87.356 Y100.488 E3.91063
G1 X86.855 Y100.354 E3.95779
G1 X86.627 Y100.128 E3.98698
G1 X86.539 Y99.824 E4.01576
G1 X86.611 Y99.347 E4.05962
G1 X86.806 Y99.056 E4.09147
G1 X86.936 Y99 E4.10434
;WIDTH:0.662299
G1 X87.067 Y98.945 E4.11648
;WIDTH:0.624599
G1 X87.197 Y98.89 E4.12777
;WIDTH:0.628821
G1 X87.471 Y98.809 E4.15079
;WIDTH:0.670744
G1 X87.744 Y98.727 E4.1755
G1 X87.92 Y98.583 E4.19521
;WIDTH:0.668916
G1 X87.987 Y98.352 E4.21599
G1 X87.935 Y98.227 E4.22769
G1 X87.848 Y98.146 E4.23796
G1 X87.613 Y98.135 E4.25829
G1 X87.311 Y98.278 E4.28716
;WIDTH:0.627907
G1 X87.009 Y98.422 E4.31407
;WIDTH:0.624599
G1 X86.87 Y98.471 E4.32585
;WIDTH:0.662299
G1 X86.731 Y98.52 E4.33844
;WIDTH:0.7
G1 X86.673 Y98.54 E4.34402
G1 X86.291 Y98.421 F7800
G1 E2.34402 F2400
G92 E0
G1 X83.602 Y98.341 F7800
G1 E2 F2400
G1 F1800
G1 X83.594 Y98.341 E2.00073
G1 X83.579 Y99.238 E2.08231
G1 X83.593 Y102.348 E2.3651
G1 X83.45 Y102.867 E2.41405
G1 X83.214 Y103.119 E2.44544
G1 X82.973 Y103.227 E2.46945
G1 X82.634 Y103.253 E2.50037
G1 X82.272 Y103.145 E2.53472
G1 X82.024 Y102.922 E2.56505
G1 X81.912 Y102.542 E2.60107
G1 X81.949 Y101.924 E2.65737
G1 X81.933 Y99.152 E2.90943
G1 X81.965 Y98.613 E2.95853
G1 X81.928 Y98.436 E2.97497
G1 X81.794 Y98.341 E2.98991
G1 X81.506 Y98.324 E3.01614
G1 X80.857 Y98.392 E3.07548
G1 X80.56 Y98.346 E3.10281
G1 X80.272 Y98.153 E3.13433
G1 X80.199 Y97.958 E3.15326
;WIDTH:0.655615
G1 X80.126 Y97.763 E3.17085
;WIDTH:0.64801
G1 X80.096 Y97.575 E3.18672
;WIDTH:0.684789
G1 X80.066 Y97.388 E3.20352
;WIDTH:0.7
G1 X80.137 Y97.125 E3.22829
G1 X80.257 Y96.933 E3.24888
G1 X80.464 Y96.763 E3.27324
G1 X80.905 Y96.664 E3.31434
G1 X81.489 Y96.706 E3.36758
G1 X84.779 Y96.695 E3.66674
G1 X85.196 Y96.824 E3.70643
G1 X85.423 Y97.105 E3.73928
G1 X85.465 Y97.254 E3.75336
;WIDTH:0.689169
G1 X85.45 Y97.506 E3.77592
;WIDTH:0.657885
G1 X85.434 Y97.757 E3.79725
;WIDTH:0.657258
G1 X85.433 Y97.807 E3.80149
;WIDTH:0.687915
G1 X85.432 Y97.858 E3.80604
;WIDTH:0.7
G1 X85.28 Y98.095 E3.83164
G1 X84.999 Y98.266 E3.86155
G1 X84.472 Y98.355 E3.91015
G1 X83.662 Y98.342 E3.98381
G1 X83.587 Y98.735 F7800
G1 E1.98381 F2400
G92 E0
G1 X79.139 Y98.689 F7800
G1 E2 F2400
G1 F1800
G1 X78.933 Y98.747 E2.01946
G1 X78.427 Y98.638 E2.06653
G1 X77.766 Y98.264 E2.13559
G1 X77.452 Y98.244 E2.1642
G1 X77.122 Y98.306 E2.19473
G1 X76.797 Y98.53 E2.23062
G1 X76.566 Y98.914 E2.27137
G1 X76.436 Y99.501 E2.32604
G1 X76.432 Y100.383 E2.40624
G1 X76.56 Y101.004 E2.46389
G1 X76.733 Y101.314 E2.49617
G1 X76.993 Y101.557 E2.52853
G1 X77.37 Y101.681 E2.56462
G1 X77.576 Y101.711 E2.58355
G1 X77.986 Y101.624 E2.62166
G1 X78.32 Y101.34 E2.66153
G1 X78.548 Y101.224 E2.68479
G1 X79.05 Y101.222 E2.73044
G1 X79.421 Y101.41 E2.76826
G1 X79.646 Y101.693 E2.80114
G1 X79.72 Y101.998 E2.82968
G1 X79.616 Y102.345 E2.86262
G1 X79.399 Y102.687 E2.89945
G1 X79.156 Y102.926 E2.93044
G1 X78.683 Y103.208 E2.98051
G1 X78.082 Y103.371 E3.03713
G1 X77.229 Y103.385 E3.1147
G1 X76.66 Y103.266 E3.16756
G1 X75.984 Y102.931 E3.23616
G1 X75.623 Y102.634 E3.27867
G1 X75.263 Y102.194 E3.33036
G1 X74.925 Y101.48 E3.40219
G1 X74.894 Y101.224 E3.42564
;WIDTH:0.650521
G1 X74.863 Y100.968 E3.44723
;WIDTH:0.601042
G1 X74.832 Y100.712 E3.46696
;WIDTH:0.551563
G1 X74.801 Y100.004 E3.51609
;WIDTH:0.540104
G1 X74.829 Y99.292 E3.5643
;WIDTH:0.580078
G1 X74.839 Y99.128 E3.57637
;WIDTH:0.620052
G1 X74.849 Y98.964 E3.5894
;WIDTH:0.660026
G1 X74.859 Y98.8 E3.60338
;WIDTH:0.7
G1 X74.869 Y98.636 E3.61832
G1 X75.064 Y98.094 E3.6707
G1 X75.407 Y97.538 E3.7301
G1 X75.862 Y97.086 E3.78842
G1 X76.409 Y96.76 E3.84632
G1 X76.99 Y96.58 E3.90163
G1 X77.577 Y96.524 E3.95525
G1 X78.322 Y96.603 E4.02337
G1 X78.75 Y96.754 E4.06464
G1 X79.243 Y97.075 E4.11813
G1 X79.513 Y97.364 E4.15409
G1 X79.548 Y97.484 E4.16546
;WIDTH:0.660365
G1 X79.582 Y97.605 E4.17616
;WIDTH:0.62073
G1 X79.616 Y97.725 E4.18606
;WIDTH:0.630974
G1 X79.642 Y97.869 E4.1979
;WIDTH:0.680853
G1 X79.668 Y98.014 E4.21088
;WIDTH:0.7
G1 X79.547 Y98.367 E4.24481
G1 X79.23 Y98.664 E4.28431
G1 X79.197 Y98.673 E4.28742
G1 X78.798 Y98.704 F7800
G1 E2.28742 F2400
G92 E0
G1 X109.181 Y101.733 F7800
G1 E2 F2400
G1 F1800
G1 X109.172 Y101.745 E2.00136
G1 X109.72 Y101.734 E2.0512
G1 X110.257 Y101.8 E2.1004
G1 X110.597 Y101.963 E2.13469
G1 X110.765 Y102.146 E2.15728
G1 X110.834 Y102.29 E2.1718
G1 X110.875 Y102.697 E2.209
;WIDTH:0.690284
G1 X110.834 Y102.747 E2.21479
;WIDTH:0.6443
G1 X110.792 Y102.797 E2.2202
;WIDTH:0.598316
G1 X110.751 Y102.848 E2.22518
;WIDTH:0.552333
G1 X110.71 Y102.898 E2.22967
;WIDTH:0.506349
G1 X110.669 Y102.948 E2.23373
;WIDTH:0.460365
G1 X110.628 Y102.999 E2.2374
;WIDTH:0.452996
G1 X110.548 Y103.086 E2.2439
;WIDTH:0.49161
G1 X110.469 Y103.173 E2.25102
;WIDTH:0.530225
G1 X110.389 Y103.261 E2.2589
;WIDTH:0.577312
G1 X110.331 Y103.296 E2.26385
;WIDTH:0.624399
G1 X110.272 Y103.332 E2.26937
;WIDTH:0.671487
G1 X110.214 Y103.368 E2.27529
;WIDTH:0.7
G1 X109.95 Y103.429 E2.29993
G1 X107.545 Y103.437 E2.51862
G1 X107.375 Y103.391 E2.53463
G1 X107.039 Y103.148 E2.57234
G1 X107.01 Y103.091 E2.57816
G1 X106.851 Y102.618 E2.62353
G1 X106.873 Y102.308 E2.65179
G1 X107.069 Y101.814 E2.70012
G1 X108.507 Y99.811 E2.92433
G1 X108.228 Y99.831 E2.94976
G1 X107.668 Y99.796 E3.00078
G1 X107.326 Y99.7 E3.03308
G1 X107.058 Y99.494 E3.06382
G1 X106.979 Y99.317 E3.08144
;WIDTH:0.651767
G1 X106.988 Y99.195 E3.0917
;WIDTH:0.603812
G1 X106.996 Y99.073 E3.10111
;WIDTH:0.555858
G1 X107.005 Y98.951 E3.10967
;WIDTH:0.55038
G1 X106.99 Y98.886 E3.11428
;WIDTH:0.592857
G1 X106.975 Y98.821 E3.11931
;WIDTH:0.635334
G1 X106.96 Y98.756 E3.12475
;WIDTH:0.677811
G1 X106.945 Y98.691 E3.1306
;WIDTH:0.7
G1 X107.043 Y98.466 E3.15292
G1 X107.155 Y98.359 E3.167
G1 X107.545 Y98.171 E3.20637
G1 X108.067 Y98.129 E3.25399
G1 X110.029 Y98.135 E3.43239
G1 X110.381 Y98.219 E3.4653
G1 X110.631 Y98.432 E3.49516
G1 X110.795 Y98.846 E3.53565
G1 X110.801 Y99.129 E3.56139
G1 X110.721 Y99.46 E3.59235
G1 X110.4 Y100.017 E3.65081
G1 X109.215 Y101.684 E3.83679
G1 X109.611 Y101.745 F7800
G1 E1.83679 F2400
G92 E0
G1 X111.705 Y100.002 F7800
G1 E2 F2400
;TYPE:Perimeter
;WIDTH:0.446397
G1 F1800
G1 X111.364 Y100.573 E2.03593
;WIDTH:0.433839
G1 X111.107 Y100.953 E2.05988
G1 X110.429 Y101.055 F7800
;WIDTH:0.7
G1 F1800
G1 X110.942 Y100.329 E2.14071
G1 X111.263 Y99.772 E2.19917
G1 X111.372 Y99.477 E2.22777
G1 X111.43 Y99.019 E2.26975
G1 X111.358 Y98.562 E2.31182
G1 X111.745 Y99.11 E2.37282
G1 X112.175 Y99.817 E2.44806
G1 X112.227 Y100.023 E2.46738
G1 X112.199 Y100.128 E2.47726
G1 X111.935 Y100.595 E2.52604
G1 X111.53 Y101.208 E2.59285
G1 X111.184 Y101.677 E2.64585
G1 X110.853 Y101.374 E2.68665
G1 X110.34 Y101.182 E2.73646
G1 X110.395 Y101.104 E2.74514
G1 E.74514 F2400
G92 E0
G1 X110.884 Y97.872 F7800
G1 E2 F2400
;WIDTH:0.595147
G1 F1800
