; generated by PrusaSlicer 2.3.0 on 2025-04-19 at 04:38:02 UTC

; 

; external perimeters extrusion width = 0.45mm
; perimeters extrusion width = 0.45mm
; infill extrusion width = 0.45mm
; solid infill extrusion width = 0.45mm
; top infill extrusion width = 0.40mm
; first layer extrusion width = 0.70mm

M107
M190 S60 ; set bed temperature and wait for it to be reached
M104 S210 ; set temperature
;TYPE:Custom
G28 ; home all axes
G1 Z5 F5000 ; lift nozzle
M109 S210 ; set temperature and wait for it to be reached
G21 ; set units to millimeters
G90 ; use absolute coordinates
M82 ; use absolute distances for extrusion
G92 E0
; Filament gcode
;LAYER_CHANGE
;Z:0.35
;HEIGHT:0.35
G1 Z0.350 F900.000
G1 E-2.00000 F2400.000
G92 E0
G1 X67.607 Y84.620 F900.000
G1 E2.00000 F2400.000
;TYPE:Skirt
;WIDTH:0.7
G1 F120.000
G1 X68.801 Y83.883 E2.12758
G1 X70.028 Y83.376 E2.24833
G1 X71.289 Y83.072 E2.36627
G1 X97.145 Y80.334 E4.73046
G1 X100.173 Y80.183 E5.00611
G1 X102.058 Y80.235 E5.17764
G1 X103.785 Y80.381 E5.33516
G1 X105.698 Y80.655 E5.51090
G1 X107.601 Y81.050 E5.68764
G1 X110.954 Y82.052 E6.00588
G1 X112.776 Y82.773 E6.18406
G1 X114.362 Y83.510 E6.34304
G1 X117.432 Y85.266 E6.66463
G1 X119.063 Y86.398 E6.84518
G1 X120.457 Y87.496 E7.00652
G1 X121.956 Y88.826 E7.18874
G1 X123.196 Y90.068 E7.34840
G1 X125.457 Y92.749 E7.66729
G1 X127.230 Y95.366 E7.95465
G1 X127.767 Y96.303 E8.05290
G1 X128.146 Y97.163 E8.13833
G1 X128.438 Y98.120 E8.22927
G1 X128.618 Y99.179 E8.32696
G1 X128.659 Y100.187 E8.41876
G1 X128.573 Y101.181 E8.50941
G1 X128.378 Y102.115 E8.59615
G1 X128.059 Y103.059 E8.68676
G1 X127.637 Y103.941 E8.77571
G1 X126.962 Y105.068 E8.89515
G1 X125.117 Y107.695 E9.18704
G1 X122.853 Y110.290 E9.50020
G1 X120.908 Y112.123 E9.74321
G1 X118.621 Y113.924 E10.00791
G1 X116.196 Y115.497 E10.27070
G1 X113.624 Y116.846 E10.53480
G1 X110.962 Y117.945 E10.79670
G1 X108.235 Y118.791 E11.05628
G1 X105.451 Y119.387 E11.31519
G1 X102.669 Y119.724 E11.56999
G1 X100.147 Y119.818 E11.79949
G1 X97.447 Y119.695 E12.04530
G1 X71.397 Y116.944 E14.42716
G1 X70.117 Y116.653 E14.54654
G1 X68.912 Y116.173 E14.66447
G1 X67.717 Y115.460 E14.79096
G1 X66.736 Y114.640 E14.90724
G1 X66.012 Y113.836 E15.00561
G1 X65.458 Y113.043 E15.09356
G1 X64.996 Y112.198 E15.18117
G1 X64.626 Y111.276 E15.27146
G1 X64.241 Y109.588 E15.42889
G1 X64.069 Y106.790 E15.68381
G1 X64.070 Y93.132 E16.92572
G1 X64.237 Y90.452 E17.16993
G1 X64.532 Y89.019 E17.30293
G1 X65.010 Y87.774 E17.42417
G1 X65.680 Y86.615 E17.54591
G1 X66.592 Y85.504 E17.67661
G1 X67.562 Y84.659 E17.79358
G1 E15.79358 F2400.000
G92 E0
G1 X81.378 Y94.202 F900.000
G1 E2.00000 F2400.000
;TYPE:Perimeter
G1 F120.000
G1 X91.980 Y94.202 E2.96408
G1 X91.980 Y105.798 E4.01846
G1 X81.378 Y105.798 E4.98255
G1 X81.378 Y94.262 E6.03147
G1 X82.003 Y94.827 F900.000
G1 F120.000
G1 X91.355 Y94.827 E6.88192
G1 X91.355 Y105.173 E7.82265
G1 X82.003 Y105.173 E8.67310
G1 X82.003 Y94.887 E9.60838
G1 X82.628 Y95.452 F900.000
;TYPE:External perimeter
G1 F120.000
G1 X90.730 Y95.452 E10.34518
G1 X90.730 Y104.548 E11.17227
G1 X82.628 Y104.548 E11.90908
G1 X82.628 Y95.512 E12.73072
G1 X82.531 Y95.064 F900.000
G1 E10.73072 F2400.000
G92 E0
G1 X72.600 Y91.392 F900.000
G1 E2.00000 F2400.000
;TYPE:Perimeter
G1 F120.000
G1 X97.966 Y88.719 E4.31933
G1 X99.172 Y88.632 E4.42928
G1 X100.193 Y88.608 E4.52215
G1 X101.594 Y88.647 E4.64958
G1 X102.839 Y88.753 E4.76313
G1 X104.243 Y88.954 E4.89211
G1 X105.672 Y89.251 E5.02484
G1 X106.880 Y89.578 E5.13869
G1 X108.104 Y89.980 E5.25581
G1 X109.460 Y90.518 E5.38841
G1 X110.610 Y91.054 E5.50382
G1 X111.735 Y91.656 E5.61980
G1 X112.849 Y92.336 E5.73853
G1 X114.059 Y93.177 E5.87249
G1 X115.073 Y93.975 E5.98983
G1 X116.177 Y94.956 E6.12412
G1 X117.085 Y95.868 E6.24114
G1 X117.934 Y96.822 E6.35730
G1 X118.726 Y97.817 E6.47292
G1 X119.588 Y99.041 E6.60905
G1 X120.180 Y100.004 E6.71184
G1 X119.946 Y100.396 E6.75342
G1 X119.245 Y101.467 E6.86983
G1 X118.487 Y102.496 E6.98600
G1 X117.819 Y103.314 E7.08205
G1 X116.956 Y104.267 E7.19893
G1 X116.202 Y105.019 E7.29572
G1 X115.412 Y105.737 E7.39282
G1 X114.588 Y106.418 E7.49003
G1 X113.731 Y107.063 E7.58759
G1 X113.029 Y107.546 E7.66503
G1 X112.308 Y108.005 E7.74278
G1 X111.572 Y108.436 E7.82030
G1 X110.823 Y108.839 E7.89770
G1 X110.063 Y109.211 E7.97464
G1 X109.085 Y109.641 E8.07169
G1 X108.301 Y109.948 E8.14829
G1 X107.505 Y110.226 E8.22500
G1 X106.704 Y110.474 E8.30121
G1 X105.685 Y110.746 E8.39712
G1 X104.876 Y110.926 E8.47251
G1 X104.036 Y111.081 E8.55016
G1 X103.039 Y111.224 E8.64173
G1 X102.014 Y111.325 E8.73543
G1 X101.203 Y111.373 E8.80926
G1 X100.393 Y111.392 E8.88298
G1 X99.587 Y111.384 E8.95625
G1 X98.787 Y111.348 E9.02908
G1 X97.988 Y111.284 E9.10192
G1 X72.600 Y108.608 E11.42326
G1 X72.600 Y105.640 E11.69317
G1 X72.494 Y105.596 E11.70366
G1 X72.493 Y102.676 E11.96915
G1 X73.077 Y102.789 E12.02322
G1 X73.568 Y102.800 E12.06786
G1 X74.057 Y102.728 E12.11280
G1 X74.523 Y102.572 E12.15749
G1 X74.990 Y102.323 E12.20562
G1 X75.506 Y101.879 E12.26753
G1 X75.824 Y101.448 E12.31618
G1 X76.064 Y100.966 E12.36522
G1 X76.222 Y100.293 E12.42800
G1 X76.223 Y99.749 E12.47754
G1 X76.130 Y99.246 E12.52397
G1 X75.946 Y98.772 E12.57019
G1 X75.666 Y98.312 E12.61920
G1 X75.189 Y97.824 E12.68122
G1 X74.743 Y97.534 E12.72959
G1 X74.293 Y97.341 E12.77413
G1 X73.799 Y97.223 E12.82033
G1 X73.221 Y97.197 E12.87298
G1 X72.494 Y97.316 E12.93995
G1 X72.494 Y94.467 E13.19902
G1 X72.599 Y94.429 E13.20915
G1 X72.600 Y91.452 E13.47991
G1 E11.47991 F2400.000
G92 E0
G1 X71.869 Y98.394 F900.000
G1 E2.00000 F2400.000
G1 F120.000
G1 X71.869 Y94.026 E2.39715
G1 X71.974 Y93.988 E2.40729
G1 X71.984 Y91.373 E2.64508
G1 X72.001 Y91.283 E2.65340
G1 X72.090 Y91.065 E2.67489
G1 X72.242 Y90.895 E2.69560
G1 X72.393 Y90.812 E2.71126
G1 X72.609 Y90.762 E2.73145
G1 X97.911 Y88.096 E5.04487
G1 X99.143 Y88.008 E5.15714
G1 X100.195 Y87.983 E5.25284
G1 X101.629 Y88.023 E5.38334
G1 X102.909 Y88.132 E5.50015
G1 X104.351 Y88.338 E5.63254
G1 X105.817 Y88.643 E5.76873
G1 X107.060 Y88.979 E5.88579
G1 X108.317 Y89.393 E6.00612
G1 X109.707 Y89.944 E6.14208
G1 X110.890 Y90.495 E6.26075
G1 X112.045 Y91.113 E6.37990
G1 X113.191 Y91.812 E6.50192
G1 X114.431 Y92.674 E6.63927
G1 X115.469 Y93.492 E6.75946
G1 X116.609 Y94.505 E6.89809
G1 X117.540 Y95.439 E7.01804
G1 X118.413 Y96.419 E7.13736
G1 X119.227 Y97.442 E7.25623
G1 X120.108 Y98.694 E7.39546
G1 X120.566 Y99.419 E7.47342
G1 X120.831 Y99.882 E7.52187
G1 X120.854 Y99.993 E7.53221
G1 X120.836 Y100.108 E7.54281
G1 X120.790 Y100.202 E7.55236
G1 X120.475 Y100.728 E7.60804
G1 X119.758 Y101.824 E7.72716
G1 X118.981 Y102.879 E7.84632
G1 X118.293 Y103.722 E7.94524
G1 X117.409 Y104.699 E8.06503
G1 X116.633 Y105.472 E8.16460
G1 X115.821 Y106.209 E8.26432
G1 X114.975 Y106.909 E8.36416
G1 X114.096 Y107.570 E8.46423
G1 X113.374 Y108.067 E8.54389
G1 X112.634 Y108.539 E8.62371
G1 X111.878 Y108.981 E8.70334
G1 X111.108 Y109.395 E8.78284
G1 X110.326 Y109.778 E8.86202
G1 X109.325 Y110.218 E8.96143
G1 X108.518 Y110.534 E9.04022
G1 X107.700 Y110.820 E9.11900
G1 X106.877 Y111.075 E9.19738
G1 X105.833 Y111.353 E9.29558
G1 X105.001 Y111.539 E9.37317
G1 X104.137 Y111.698 E9.45303
G1 X103.114 Y111.845 E9.54701
G1 X102.063 Y111.948 E9.64307
G1 X101.229 Y111.997 E9.71900
G1 X100.397 Y112.017 E9.79469
G1 X99.569 Y112.009 E9.86993
G1 X98.748 Y111.971 E9.94472
G1 X97.931 Y111.906 E10.01926
G1 X72.626 Y109.239 E12.33292
G1 X72.435 Y109.200 E12.35064
G1 X72.315 Y109.148 E12.36255
G1 X72.212 Y109.076 E12.37401
G1 X72.075 Y108.911 E12.39349
G1 X72.003 Y108.732 E12.41102
G1 X71.975 Y108.479 E12.43419
G1 X71.975 Y106.057 E12.65438
G1 X71.869 Y106.013 E12.66485
G1 X71.868 Y101.606 E13.06563
G1 X72.384 Y101.946 E13.12179
G1 X72.766 Y102.092 E13.15898
G1 X73.144 Y102.166 E13.19402
G1 X73.529 Y102.174 E13.22900
G1 X73.911 Y102.117 E13.26414
G1 X74.275 Y101.996 E13.29907
G1 X74.635 Y101.804 E13.33613
G1 X75.045 Y101.451 E13.38538
G1 X75.289 Y101.121 E13.42266
G1 X75.473 Y100.752 E13.46012
G1 X75.597 Y100.221 E13.50975
G1 X75.598 Y99.806 E13.54749
G1 X75.526 Y99.418 E13.58339
G1 X75.384 Y99.050 E13.61923
G1 X75.169 Y98.698 E13.65670
G1 X74.791 Y98.310 E13.70599
G1 X74.448 Y98.087 E13.74315
G1 X74.096 Y97.937 E13.77799
G1 X73.712 Y97.844 E13.81391
G1 X73.258 Y97.824 E13.85522
G1 X72.779 Y97.902 E13.89929
G1 X72.384 Y98.054 E13.93779
G1 X71.919 Y98.361 E13.98846
G1 X72.335 Y98.835 F900.000
;TYPE:External perimeter
G1 F120.000
G1 X72.671 Y98.613 E14.02513
G1 X72.943 Y98.509 E14.05161
G1 X73.295 Y98.451 E14.08401
G1 X73.624 Y98.466 E14.11398
G1 X73.898 Y98.532 E14.13963
G1 X74.153 Y98.641 E14.16478
G1 X74.392 Y98.796 E14.19073
G1 X74.672 Y99.084 E14.22727
G1 X74.821 Y99.327 E14.25321
G1 X74.922 Y99.589 E14.27867
G1 X74.973 Y99.863 E14.30404
G1 X74.973 Y100.148 E14.32997
G1 X74.881 Y100.539 E14.36646
G1 X74.754 Y100.794 E14.39234
G1 X74.585 Y101.023 E14.41826
G1 X74.280 Y101.285 E14.45485
G1 X74.028 Y101.420 E14.48083
G1 X73.765 Y101.507 E14.50600
G1 X73.489 Y101.548 E14.53134
G1 X73.211 Y101.542 E14.55666
G1 X72.938 Y101.489 E14.58192
G1 X72.671 Y101.387 E14.60793
G1 X72.333 Y101.164 E14.64475
G1 X72.137 Y100.954 E14.67090
G1 X71.987 Y100.721 E14.69607
G1 X71.879 Y100.456 E14.72209
G1 X71.837 Y100.182 E14.74729
G1 X71.837 Y99.819 E14.78031
G1 X71.880 Y99.542 E14.80578
G1 X71.987 Y99.279 E14.83161
G1 X72.138 Y99.044 E14.85695
G1 X72.293 Y98.879 E14.87762
G1 X72.268 Y98.441 F900.000
G1 E12.87762 F2400.000
G92 E0
G1 X71.865 Y90.395 F900.000
G1 E2.00000 F2400.000
G1 F120.000
G1 X72.165 Y90.228 E2.03114
G1 X72.331 Y90.176 E2.04705
G1 X72.524 Y90.143 E2.06480
G1 X97.856 Y87.474 E4.38098
G1 X99.113 Y87.383 E4.49557
G1 X100.196 Y87.358 E4.59410
G1 X101.665 Y87.399 E4.72768
G1 X102.980 Y87.511 E4.84774
G1 X104.459 Y87.723 E4.98355
G1 X105.962 Y88.035 E5.12319
G1 X107.239 Y88.380 E5.24346
G1 X108.530 Y88.805 E5.36701
G1 X109.954 Y89.369 E5.50633
G1 X111.169 Y89.936 E5.62825
G1 X112.355 Y90.571 E5.75057
G1 X113.532 Y91.288 E5.87588
G1 X114.803 Y92.172 E6.01663
G1 X115.866 Y93.009 E6.13966
G1 X116.377 Y93.447 E6.20088
G1 X117.042 Y94.053 E6.28265
G1 X117.995 Y95.011 E6.40554
G1 X118.891 Y96.017 E6.52802
G1 X119.727 Y97.067 E6.65013
G1 X120.628 Y98.348 E6.79246
G1 X121.101 Y99.097 E6.87306
G1 X121.401 Y99.620 E6.92786
G1 X121.452 Y99.765 E6.94185
G1 X121.483 Y99.976 E6.96120
G1 X121.464 Y100.184 E6.98026
G1 X121.421 Y100.333 E6.99432
G1 X121.340 Y100.500 E7.01120
G1 X121.005 Y101.060 E7.07052
G1 X120.271 Y102.181 E7.19236
G1 X119.475 Y103.262 E7.31450
G1 X118.767 Y104.130 E7.41628
G1 X117.861 Y105.130 E7.53899
G1 X117.064 Y105.924 E7.64134
G1 X116.231 Y106.681 E7.74369
G1 X115.363 Y107.400 E7.84615
G1 X114.461 Y108.078 E7.94873
G1 X113.720 Y108.588 E8.03060
G1 X112.960 Y109.072 E8.11251
G1 X112.184 Y109.526 E8.19424
G1 X111.393 Y109.951 E8.27584
G1 X110.589 Y110.345 E8.35727
G1 X109.565 Y110.795 E8.45903
G1 X108.735 Y111.120 E8.54001
G1 X107.896 Y111.413 E8.62085
G1 X107.050 Y111.676 E8.70141
G1 X105.982 Y111.960 E8.80190
G1 X105.126 Y112.151 E8.88169
G1 X104.238 Y112.315 E8.96375
G1 X103.189 Y112.465 E9.06015
G1 X102.112 Y112.571 E9.15856
G1 X101.255 Y112.622 E9.23659
G1 X100.401 Y112.642 E9.31426
G1 X99.552 Y112.633 E9.39147
G1 X98.709 Y112.595 E9.46823
G1 X97.873 Y112.528 E9.54447
G1 X72.530 Y109.858 E11.86165
G1 X72.247 Y109.799 E11.88793
G1 X72.009 Y109.697 E11.91149
G1 X71.800 Y109.550 E11.93474
G1 X71.621 Y109.359 E11.95848
G1 X71.453 Y109.059 E11.98983
G1 X71.362 Y108.704 E12.02313
G1 X71.350 Y108.498 E12.04191
G1 X71.351 Y106.475 E12.22584
G1 X71.244 Y106.431 E12.23630
G1 X71.243 Y101.401 E12.69366
G1 X71.207 Y99.959 E12.82481
G1 X71.244 Y98.517 E12.95596
G1 X71.245 Y93.585 E13.40444
G1 X71.350 Y93.548 E13.41458
G1 X71.362 Y91.297 E13.61924
G1 X71.396 Y91.119 E13.63573
G1 X71.491 Y90.854 E13.66131
G1 X71.572 Y90.712 E13.67621
G1 X71.741 Y90.503 E13.70067
G1 X71.820 Y90.434 E13.71014
G1 X72.176 Y90.539 F900.000
G1 E11.71014 F2400.000
G92 E0
G1 X71.695 Y98.883 F900.000
G1 E2.00000 F2400.000
;TYPE:Gap fill
;WIDTH:0.282808
G1 F120.000
G1 X71.633 Y99.085 E2.00641
;WIDTH:0.256477
G1 X71.628 Y99.101 E2.00685
;WIDTH:0.248954
G1 X71.599 Y99.244 E2.01054
;WIDTH:0.204032
G1 X71.569 Y99.387 E2.01327
G1 X71.571 Y100.618 F900.000
;WIDTH:0.203065
G1 F120.000
G1 X71.600 Y100.758 E2.01593
;WIDTH:0.247021
G1 X71.629 Y100.898 E2.01951
;WIDTH:0.254405
G1 X71.633 Y100.914 E2.01994
;WIDTH:0.281702
G1 X71.696 Y101.117 E2.02634
G1 X71.856 Y101.173 F900.000
;WIDTH:0.15923
G1 F120.000
G1 X71.912 Y101.173 E2.02702
G1 X71.856 Y101.173 F900.000
;WIDTH:0.160968
G1 F120.000
G1 X71.543 Y100.872 E2.03245
G1 E0.03245 F2400.000
G92 E0
G1 X118.791 Y98.234 F900.000
G1 E2.00000 F2400.000
;TYPE:Solid infill
;WIDTH:0.701692
G1 F120.000
G1 X115.844 Y95.287 E2.37995
G1 X114.772 Y94.335 E2.51068
G1 X113.780 Y93.554 E2.62580
G1 X112.593 Y92.729 E2.75757
G1 X112.096 Y92.425 E2.81066
G1 X119.585 Y99.914 E3.77626
G1 X119.637 Y99.999 E3.78534
G1 X119.305 Y100.520 E3.84172
G1 X110.133 Y91.349 E5.02428
G1 X109.274 Y90.948 E5.11070
G1 X108.566 Y90.668 E5.18013
G1 X118.954 Y101.056 E6.51955
G1 X118.585 Y101.573 E6.57747
G1 X107.183 Y90.171 E8.04764
G1 X106.746 Y90.027 E8.08961
G1 X105.934 Y89.807 E8.16633
G1 X118.209 Y102.083 E9.74918
G1 X117.817 Y102.576 E9.80667
G1 X104.786 Y89.546 E11.48688
G1 X104.162 Y89.416 E11.54501
G1 X103.704 Y89.350 E11.58712
G1 X117.416 Y103.062 E13.35507
G1 X116.995 Y103.527 E13.41227
G1 X102.677 Y89.209 E15.25839
G1 X101.709 Y89.127 E15.34699
G1 X116.571 Y103.990 E17.26337
G1 X116.127 Y104.432 E17.32050
G1 X100.789 Y89.094 E19.29825
G1 X99.893 Y89.084 E19.37993
G1 X115.675 Y104.865 E21.41479
G1 X115.210 Y105.287 E21.47199
G1 X99.035 Y89.112 E23.55764
G1 X98.208 Y89.171 E23.63320
G1 X114.730 Y105.693 E25.76351
G1 X114.243 Y106.092 E25.82093
G1 X97.401 Y89.250 E27.99257
G1 X96.599 Y89.334 E28.06607
G1 X113.737 Y106.472 E30.27587
G1 X113.223 Y106.844 E30.33373
G1 X95.797 Y89.419 E32.58060
G1 X94.996 Y89.503 E32.65409
G1 X112.696 Y107.203 E34.93637
G1 X112.154 Y107.548 E34.99489
G1 X94.194 Y89.587 E37.31071
G1 X93.392 Y89.672 E37.38420
G1 X111.598 Y107.878 E39.73171
G1 X111.030 Y108.196 E39.79108
G1 X92.591 Y89.756 E42.16866
G1 X91.789 Y89.841 E42.24215
G1 X110.449 Y108.500 E44.64813
G1 X109.854 Y108.791 E44.70853
G1 X90.988 Y89.925 E47.14114
G1 X90.186 Y90.010 E47.21464
G1 X109.238 Y109.062 E49.67123
G1 X108.612 Y109.322 E49.73301
G1 X89.384 Y90.094 E52.21232
G1 X88.583 Y90.179 E52.28582
G1 X107.971 Y109.567 E54.78574
G1 X107.313 Y109.795 E54.84922
G1 X92.449 Y94.931 E56.76579
G1 X92.449 Y95.817 E56.84658
G1 X106.636 Y110.005 E58.67593
G1 X105.939 Y110.193 E58.74182
G1 X92.449 Y96.703 E60.48119
G1 X92.449 Y97.590 E60.56199
G1 X105.227 Y110.368 E62.20962
G1 X104.494 Y110.520 E62.27792
G1 X92.449 Y98.476 E63.83098
G1 X92.449 Y99.362 E63.91177
G1 X103.738 Y110.651 E65.36739
G1 X102.962 Y110.761 E65.43885
G1 X92.449 Y100.248 E66.79440
G1 X92.449 Y101.134 E66.87520
G1 X102.155 Y110.840 E68.12671
G1 X101.325 Y110.896 E68.20255
G1 X92.449 Y102.020 E69.34705
G1 X92.449 Y102.906 E69.42784
G1 X100.464 Y110.922 E70.46137
G1 X99.571 Y110.914 E70.54287
G1 X92.449 Y103.792 E71.46115
G1 X92.449 Y104.679 E71.54195
G1 X98.636 Y110.865 E72.33970
G1 X97.663 Y110.778 E72.42878
G1 X92.449 Y105.565 E73.10104
G1 X92.449 Y106.266 E73.16503
G1 X92.265 Y106.266 E73.18184
G1 X96.672 Y110.674 E73.75015
G1 X95.682 Y110.570 E73.84096
G1 X91.378 Y106.266 E74.39581
G1 X90.492 Y106.266 E74.47660
G1 X94.691 Y110.465 E75.01800
G1 X93.701 Y110.361 E75.10881
G1 X89.606 Y106.266 E75.63674
G1 X88.720 Y106.266 E75.71753
G1 X92.710 Y110.256 E76.23201
G1 X91.720 Y110.152 E76.32282
G1 X87.834 Y106.266 E76.82383
G1 X86.948 Y106.266 E76.90463
G1 X90.729 Y110.048 E77.39218
G1 X89.739 Y109.943 E77.48299
G1 X86.062 Y106.266 E77.95709
G1 X85.176 Y106.266 E78.03788
G1 X88.748 Y109.839 E78.49852
G1 X87.758 Y109.734 E78.58933
G1 X84.290 Y106.266 E79.03650
G1 X83.403 Y106.266 E79.11730
G1 X86.767 Y109.630 E79.55101
G1 X85.777 Y109.526 E79.64182
G1 X82.236 Y105.985 E80.09834
G1 E78.09834 F2400.000
G92 E0
G1 X91.532 Y94.015 F900.000
G1 E2.00000 F2400.000
G1 F120.000
